X: 082
T: Who's Afraid
%R: reel
B: Thompson's Twenty four Country Dances (for the Year 1804) p.8 #2
S: http://folkopedia.efdss.org/images/2/28/Thompson24_1804.PDF  2014-8-2
Z: 2014 John Chambers <jc:trillian.mit.edu>
M: 2/4
L: 1/16
K: C
|:\
c2ce dBG2 | d2df edc2 | g2g2 agfe | fefd cBAG |
c2ce dBG2 | d2df edc2 | g2g2 afed | fdcB c4 H:|
|:\
[d2B2][d2B2] [e2c2][e2c2] | [fd][ge][fd][ec] [d2B2][d2B2] |\
[e2c2][e2c2]c'2b2 | abc'a g^fed |
[g2e2][ge][af] [^f2d2][fd][ge] | [e2c2][ec][fd] [d2B2][d2B2] |\
[e2c2][e2c2] abc'a | g4 ^f4 HTg8 :|
% - - - - - - - - - - - - - - - - - - - - - - - - -
%%begintext align
%% Set and hands across and back again lead
%% down the middle up again right & left.
%%endtext
% - - - - - - - - - - - - - - - - - - - - - - - - -
